X: 21457
T: Kevin McHugh's
R: jig
M: 6/8
K: Gmajor
DEF|:G2B BAB|G2B BAG|F2A AGA|F2A DEF|
G2B BAB|GAB ~d3|def gdB|GAG G3:|
|:aba age|~g3 gfe|dBd gdB|ABA A3|
aba age|~g3 gfe|dBd gdB|GAG G3:|

